X: 52
T:Cendrillon,La. CJF.052
T:La Cendrillon. CJF.052
M:2/4
L:1/8
Q:180
C:Caraffa
S:C.J.Fox MS, 1829/33, Beverley,E.Yorks.
R:Misc.
O:England
A:East Yorkshire
B:Kidson Coll.Mitchell Lib.M1805
Z:vmp.P J Headford 2000
K:G
"$"b2ag|fed2|g2ab|bc'a2|c'2ba|gfe2|d2ef|\
a2gz:|!
"tr"a2^ga|c'^ga2|b2=gb|a2d'2|a2^ga|\
c'^ga2|b2=gb|a2d'2|!
a2^ga|c'^ga2|_b2a_b|\
(ad').d'.d'|a2^ga|c'^ga2|_b2gb|ad'^c'"$"=c'|]
